X: 47
M:C|
L:1/8
K:Bb
u(F>.E)|\
v(D>.F)(B>.F) "_SEGUE"d>BF>D | E>GB>G e>BG>E | F>Ac>A e>cA>c |\
 B>df>d b>fd>B |
|:u(b>.a)|\
v(g>.e)"_SEGUE"B>e (3ggg b>g | f>dB>d f>=e_e>c |\
 A>F=E>F (3eee A>g | (3fbf (3dfd (3BdB (3FBF |
 (3G^FG "4"(3AGA (3BAB(3cBc | (3dBF(3BFD B,2 "^D.C.":|


